X:80
T: Abends und Morgens, S. 49
N: L0040
O: Luxemburg
S: Die Luxemburger Volkslieder lterer Zeit, Luxemburg 1904 posth.]
R: ??, Liebeslied]
M: 2/4
L: 1/8
K: G
D | G2GB | A2Ac | BGAF | G2z2 |
Bddd | eccc | Accc | dBBB |
G3B | A3c | BGAF | G3

@@@ Tune index: 8134
